wp-content/themes/quarkexpeditions/src/assets/svg/star.svg

<svg xmlns="http://www.w3.org/2000/svg" width="18" height="18" viewBox="0 0 18 18"><path fill="#232933" d="M21.001,24.995 C20.8561561,24.9955022 20.7134892,24.9597496 20.586,24.891 L15.986,22.363 L11.386,24.891 C11.0829515,25.0591552 10.7088337,25.0304375 10.435,24.818 C10.2972031,24.711501 10.1916271,24.5688868 10.13,24.406 C10.0671487,24.2409619 10.0495413,24.0621265 10.079,23.888 L10.981,18.556 L7.265,14.769 C7.14802188,14.6456639 7.06589022,14.4934788 7.027,14.328 C6.98717996,14.1611331 6.99131454,13.9867916 7.039,13.822 C7.0902348,13.655202 7.18641842,13.5057368 7.317,13.39 C7.44434895,13.277055 7.60169043,13.2034206 7.77,13.178 L12.91,12.392 L15.175,7.534 C15.2471191,7.37557502 15.3621194,7.24048441 15.507,7.144 C15.7975788,6.95235163 16.1744212,6.95235163 16.465,7.144 C16.609,7.239 16.725,7.374 16.798,7.534 L19.089,12.382 L24.23,13.168 C24.3983851,13.1938161 24.5557079,13.267789 24.683,13.381 C24.9462642,13.6156109 25.0579149,13.9767432 24.973,14.319 C24.9339004,14.4841053 24.8517849,14.6359154 24.735,14.759 L21.019,18.547 L21.921,23.878 C21.9534356,24.0554159 21.9368394,24.2383198 21.873,24.407 C21.810143,24.5730458 21.7016402,24.7179474 21.56,24.825 C21.3987977,24.944338 21.2013488,25.0043851 21.001,24.995 L21.001,24.995 Z" transform="translate(-7 -7)"/></svg>

<svg class="icon icon-star" width="32" height="32" fill="none" xmlns="http://www.w3.org/2000/svg"><circle cx="16" cy="16" r="16" fill="#ECEEF2"/><path d="M21.001 24.995a.868.868 0 0 1-.415-.104l-4.6-2.528-4.6 2.528a.866.866 0 0 1-.951-.073.942.942 0 0 1-.305-.412.991.991 0 0 1-.051-.518l.902-5.332-3.716-3.787a.96.96 0 0 1-.238-.441.992.992 0 0 1 .012-.506.95.95 0 0 1 .278-.432.881.881 0 0 1 .453-.212l5.14-.786 2.265-4.858a.933.933 0 0 1 .332-.39.87.87 0 0 1 .958 0c.144.095.26.23.333.39l2.291 4.848 5.141.786a.883.883 0 0 1 .453.213.95.95 0 0 1 .29.938.961.961 0 0 1-.238.44l-3.716 3.788.902 5.331a.991.991 0 0 1-.048.529.942.942 0 0 1-.313.418.871.871 0 0 1-.559.17Z" fill="#232933"/></svg>
